sources/design/Outline/്.svg

<svg:svg xmlns:cc="http://creativecommons.org/ns#" xmlns:dc="http://purl.org/dc/elements/1.1/" xmlns:inkscape="http://www.inkscape.org/namespaces/inkscape" xmlns:rdf="http://www.w3.org/1999/02/22-rdf-syntax-ns#" xmlns:sodipodi="http://sodipodi.sourceforge.net/DTD/sodipodi-0.dtd" xmlns:svg="http://www.w3.org/2000/svg" xml:space="preserve" width="1200" height="1000" version="1.1" style="clip-rule:evenodd;fill-rule:evenodd;image-rendering:optimizeQuality;shape-rendering:geometricPrecision;text-rendering:geometricPrecision" viewBox="0 0 1200 1000" id="svg10" sodipodi:docname="്.svg" inkscape:version="1.0.2 (e86c870879, 2021-01-15)"><svg:metadata id="metadata14"><rdf:RDF><cc:Work rdf:about=""><dc:format>image/svg+xml</dc:format><dc:type rdf:resource="http://purl.org/dc/dcmitype/StillImage" /><dc:title /></cc:Work></rdf:RDF></svg:metadata><sodipodi:namedview pagecolor="#ffffff" bordercolor="#666666" borderopacity="1" objecttolerance="10" gridtolerance="10" guidetolerance="10" inkscape:pageopacity="0" inkscape:pageshadow="2" inkscape:window-width="1920" inkscape:window-height="1009" id="namedview12" showgrid="false" inkscape:zoom="1.356" inkscape:cx="210.26352" inkscape:cy="108.60713" inkscape:window-x="1920" inkscape:window-y="0" inkscape:window-maximized="1" inkscape:current-layer="svg10" showguides="true" inkscape:guide-bbox="true" inkscape:document-rotation="0" inkscape:snap-to-guides="true" inkscape:pagecheckerboard="0"><sodipodi:guide position="0,1000" orientation="0,1" id="guide16" inkscape:label="" inkscape:locked="true" inkscape:color="rgb(0,0,255)" /><sodipodi:guide position="1763.3122,2036.1693" orientation="1000,0" id="guide18" /><sodipodi:guide position="0,200" orientation="0,1" id="guide20" inkscape:label="base" inkscape:locked="true" inkscape:color="rgb(0,0,255)" /><inkscape:grid type="xygrid" id="grid24" originx="-473.37552" originy="-489.69235" /><sodipodi:guide position="0,0" orientation="0,1" id="guide34" inkscape:label="bottom" inkscape:locked="true" inkscape:color="rgb(0,0,255)" /><sodipodi:guide position="225.05109,1693.3186" orientation="0,1" id="guide44" inkscape:label="" inkscape:locked="false" inkscape:color="rgb(0,0,255)" /><sodipodi:guide position="0,900" orientation="0,1" id="guide46" inkscape:label="" inkscape:locked="true" inkscape:color="rgb(0,0,255)" /><sodipodi:guide position="0,1000" orientation="0,1000" id="guide860" /><sodipodi:guide position="0,1240.78" orientation="-1,0" id="guide862" inkscape:label="width" inkscape:locked="false" inkscape:color="rgb(0,0,255)" /><sodipodi:guide position="1000,0" orientation="0,-1000" id="guide864" /><sodipodi:guide position="0,0" orientation="-1000,0" id="guide866" /></sodipodi:namedview>
 <svg:defs id="defs4"><inkscape:path-effect effect="fillet_chamfer" id="path-effect860" is_visible="true" lpeversion="1" satellites_param="F,0,0,1,0,7.5046638,0,1 @ F,0,0,1,0,0,0,1 @ F,0,0,1,0,0,0,1 @ F,0,0,1,0,0,0,1 @ F,0,0,1,0,0,0,1 @ F,0,0,1,0,0,0,1 @ F,0,0,1,0,8.943857,0,1 @ F,0,1,1,0,8.1607892,0,1 @ F,0,0,1,0,0,0,1 @ F,0,0,1,0,0,0,1 @ F,0,0,1,0,0,0,1 @ F,0,0,1,0,0,0,1 @ F,0,0,1,0,8.1607892,0,1" unit="px" method="auto" mode="F" radius="0" chamfer_steps="1" flexible="false" use_knot_distance="true" apply_no_radius="true" apply_with_radius="true" only_selected="true" hide_knots="false" /><inkscape:path-effect effect="fillet_chamfer" id="path-effect859" is_visible="true" lpeversion="1" satellites_param="F,0,1,1,0,20.830993,0,1 @ F,0,0,1,0,0,0,1 @ F,0,0,1,0,0,0,1 @ F,0,0,1,0,0,0,1 @ F,0,0,1,0,0,0,1 @ F,0,0,1,0,17.280548,0,1 @ F,0,0,1,0,7.7675294,0,1 @ F,0,0,1,0,11.097947,0,1 @ F,0,0,1,0,0,0,1 @ F,0,0,1,0,0,0,1 @ F,0,0,1,0,0,0,1 @ F,0,0,1,0,12.662815,0,1" unit="px" method="auto" mode="F" radius="0" chamfer_steps="1" flexible="false" use_knot_distance="true" apply_no_radius="true" apply_with_radius="true" only_selected="true" hide_knots="false" /><inkscape:path-effect effect="spiro" id="path-effect868" is_visible="true" lpeversion="1" /><inkscape:path-effect effect="spiro" id="path-effect856" is_visible="true" lpeversion="1" /><inkscape:path-effect effect="spiro" id="path-effect1521" is_visible="true" lpeversion="1" /><inkscape:path-effect effect="spiro" id="path-effect858" is_visible="true" lpeversion="1" /><inkscape:path-effect effect="spiro" id="path-effect854" is_visible="true" lpeversion="1" />
  <svg:style type="text/css" id="style2">
   
    .fil0 {fill:#EF7F1A;fill-rule:nonzero}
   
  </svg:style>
 <inkscape:path-effect effect="spiro" id="path-effect1214" is_visible="true" lpeversion="1" /><inkscape:path-effect effect="spiro" id="path-effect1195" is_visible="true" lpeversion="1" /><inkscape:path-effect effect="spiro" id="path-effect992" is_visible="true" lpeversion="1" /><inkscape:path-effect effect="spiro" id="path-effect287" is_visible="true" lpeversion="1" /><inkscape:path-effect effect="spiro" id="path-effect1032" is_visible="true" lpeversion="1" /><inkscape:path-effect effect="spiro" id="path-effect1218" is_visible="true" lpeversion="1" /><inkscape:path-effect effect="spiro" id="path-effect309" is_visible="true" lpeversion="1" /><inkscape:path-effect effect="spiro" id="path-effect1176" is_visible="true" lpeversion="1" /><inkscape:path-effect effect="spiro" id="path-effect1112" is_visible="true" lpeversion="1" /><inkscape:path-effect effect="spiro" id="path-effect1251" is_visible="true" lpeversion="1" /><inkscape:path-effect effect="spiro" id="path-effect513" is_visible="true" lpeversion="1" /></svg:defs>
 
<svg:g id="use1084"><svg:path style="color:#000000;clip-rule:nonzero;fill:#1a5fb4;fill-rule:nonzero;stroke-linecap:round;stroke-linejoin:round;-inkscape-stroke:none;paint-order:fill stroke markers;shape-rendering:auto" d="M 114.88086,-139.30273 C 109.23401,-139.55562 103.7208,-138.54892 99.064453,-136.63672 L -2.3730469,-94.980469 C -11.931539,-91.05512 -20.868949999999998,-81.813828 -24.021483999999997,-71.333984 C -27.174018999999998,-60.854141 -25.260652999999998,-50.473375000000004 -21.115233999999997,-42.474609 C -18.702975999999996,-37.820052000000004 -17.836844999999997,-31.808382 -18.771483999999997,-26.992187 C -19.982875999999997,-20.74989 -24.838854999999995,-13.726508 -30.853516,-9.986328100000001 C -37.023565,-6.1495212000000015 -45.970056,-4.511022100000002 -53.835937,-5.992187500000002 C -60.353441000000004,-7.219450000000002 -67.04541,-10.553689000000002 -72.279297,-15.259766000000003 C -77.546936,-19.996191000000003 -81.854643,-26.530187000000005 -84.316406,-33.607422 C -86.505716,-39.901391 -87.350965,-46.901945 -86.724609,-53.621094 C -85.86510200000001,-62.841347999999996 -88.49466,-73.142856 -95.269531,-81.105469 C -102.0444,-89.068082 -113.00216,-93.830078 -123.03906,-93.830078 L -217.73242,-93.830078 C -227.83481,-93.830078 -239.54043,-89.165497 -246.75,-79.695312 C -253.95957,-70.225128 -255.37555,-57.181576 -252.38281,-47.291016 C -240.31765000000001,-7.417462399999998 -218.83929,29.348610000000008 -189.93945000000002,59.410156 C -159.18224000000004,91.403743 -118.43855000000002,116.97865999999999 -71.12109400000003,123.01953 C -39.81064500000003,127.01684 -8.309164900000027,121.98306000000001 20.06249999999997,110.03711 C 48.365393,98.120113 73.053508,79.618945 92.964844,57.287109 C 132.55813,12.880713 152.73112,-46.703758 148.67969,-105.9082 C 147.97321,-116.23214999999999 141.89794999999998,-128.17143 131.50585999999998,-134.41602 C 126.30980999999998,-137.53831 120.52770999999998,-139.04985 114.88085999999998,-139.30273 L 114.88086,-139.30273 M 87.171875,-66.890625 C 82.395524,-35.835004 68.844279,-5.8211918 48.179687,17.355469 C 33.748501,33.540966 16.03667,46.631874 -3.2207031,54.740234 C -22.409304,62.819638 -43.643202,66.041706 -63.521484,63.503906 C -93.619768,59.66135 -123.35507,42.09448 -146.68555,17.826172 C -161.24852,2.6778002 -173.40867,-14.890517 -182.7168,-33.830078 L -145.73242,-33.830078 C -144.76072,-27.078782 -143.24688,-20.393321 -140.98632999999998,-13.894531 C -135.28124999999997,2.5067921999999996 -125.61370999999998,17.473085 -112.39647999999998,29.357422 C -99.14550599999998,41.272108 -82.84906599999998,49.59791 -64.93749999999999,52.970703 C -42.57191799999998,57.182199 -19.121681999999986,53.374891 0.8320312500000142,40.966797 C 20.941133,28.462075 35.479752,8.3945697 40.128906,-15.5625 C 42.211391,-26.293533 42.061405,-37.102439 40.0,-47.517578 L 87.171875,-66.890625" id="path18020" /></svg:g></svg:svg>

<svg:svg xmlns:cc="http://creativecommons.org/ns#" xmlns:dc="http://purl.org/dc/elements/1.1/" xmlns:inkscape="http://www.inkscape.org/namespaces/inkscape" xmlns:rdf="http://www.w3.org/1999/02/22-rdf-syntax-ns#" xmlns:sodipodi="http://sodipodi.sourceforge.net/DTD/sodipodi-0.dtd" xmlns:svg="http://www.w3.org/2000/svg" xml:space="preserve" width="1200" height="1000" version="1.1" style="clip-rule:evenodd;fill-rule:evenodd;image-rendering:optimizeQuality;shape-rendering:geometricPrecision;text-rendering:geometricPrecision" viewBox="0 0 1200 1000" id="svg10" sodipodi:docname="്.svg" inkscape:version="1.0.2 (e86c870879, 2021-01-15)"><svg:metadata id="metadata14"><rdf:RDF><cc:Work rdf:about=""><dc:format>image/svg+xml</dc:format><dc:type rdf:resource="http://purl.org/dc/dcmitype/StillImage" /><dc:title /></cc:Work></rdf:RDF></svg:metadata><sodipodi:namedview pagecolor="#ffffff" bordercolor="#666666" borderopacity="1" objecttolerance="10" gridtolerance="10" guidetolerance="10" inkscape:pageopacity="0" inkscape:pageshadow="2" inkscape:window-width="1920" inkscape:window-height="1009" id="namedview12" showgrid="false" inkscape:zoom="1.356" inkscape:cx="210.26352" inkscape:cy="108.60713" inkscape:window-x="1920" inkscape:window-y="0" inkscape:window-maximized="1" inkscape:current-layer="svg10" showguides="true" inkscape:guide-bbox="true" inkscape:document-rotation="0" inkscape:snap-to-guides="true" inkscape:pagecheckerboard="0"><sodipodi:guide position="0,1000" orientation="0,1" id="guide16" inkscape:label="" inkscape:locked="true" inkscape:color="rgb(0,0,255)" /><sodipodi:guide position="1763.3122,2036.1693" orientation="1000,0" id="guide18" /><sodipodi:guide position="0,200" orientation="0,1" id="guide20" inkscape:label="base" inkscape:locked="true" inkscape:color="rgb(0,0,255)" /><inkscape:grid type="xygrid" id="grid24" originx="-473.37552" originy="-489.69235" /><sodipodi:guide position="0,0" orientation="0,1" id="guide34" inkscape:label="bottom" inkscape:locked="true" inkscape:color="rgb(0,0,255)" /><sodipodi:guide position="225.05109,1693.3186" orientation="0,1" id="guide44" inkscape:label="" inkscape:locked="false" inkscape:color="rgb(0,0,255)" /><sodipodi:guide position="0,900" orientation="0,1" id="guide46" inkscape:label="" inkscape:locked="true" inkscape:color="rgb(0,0,255)" /><sodipodi:guide position="0,1000" orientation="0,1000" id="guide860" /><sodipodi:guide position="0,1240.78" orientation="-1,0" id="guide862" inkscape:label="width" inkscape:locked="false" inkscape:color="rgb(0,0,255)" /><sodipodi:guide position="1000,0" orientation="0,-1000" id="guide864" /><sodipodi:guide position="0,0" orientation="-1000,0" id="guide866" /></sodipodi:namedview>
 <svg:defs id="defs4"><inkscape:path-effect effect="fillet_chamfer" id="path-effect860" is_visible="true" lpeversion="1" satellites_param="F,0,0,1,0,7.5046638,0,1 @ F,0,0,1,0,0,0,1 @ F,0,0,1,0,0,0,1 @ F,0,0,1,0,0,0,1 @ F,0,0,1,0,0,0,1 @ F,0,0,1,0,0,0,1 @ F,0,0,1,0,8.943857,0,1 @ F,0,1,1,0,8.1607892,0,1 @ F,0,0,1,0,0,0,1 @ F,0,0,1,0,0,0,1 @ F,0,0,1,0,0,0,1 @ F,0,0,1,0,0,0,1 @ F,0,0,1,0,8.1607892,0,1" unit="px" method="auto" mode="F" radius="0" chamfer_steps="1" flexible="false" use_knot_distance="true" apply_no_radius="true" apply_with_radius="true" only_selected="true" hide_knots="false" /><inkscape:path-effect effect="fillet_chamfer" id="path-effect859" is_visible="true" lpeversion="1" satellites_param="F,0,1,1,0,20.830993,0,1 @ F,0,0,1,0,0,0,1 @ F,0,0,1,0,0,0,1 @ F,0,0,1,0,0,0,1 @ F,0,0,1,0,0,0,1 @ F,0,0,1,0,17.280548,0,1 @ F,0,0,1,0,7.7675294,0,1 @ F,0,0,1,0,11.097947,0,1 @ F,0,0,1,0,0,0,1 @ F,0,0,1,0,0,0,1 @ F,0,0,1,0,0,0,1 @ F,0,0,1,0,12.662815,0,1" unit="px" method="auto" mode="F" radius="0" chamfer_steps="1" flexible="false" use_knot_distance="true" apply_no_radius="true" apply_with_radius="true" only_selected="true" hide_knots="false" /><inkscape:path-effect effect="spiro" id="path-effect868" is_visible="true" lpeversion="1" /><inkscape:path-effect effect="spiro" id="path-effect856" is_visible="true" lpeversion="1" /><inkscape:path-effect effect="spiro" id="path-effect1521" is_visible="true" lpeversion="1" /><inkscape:path-effect effect="spiro" id="path-effect858" is_visible="true" lpeversion="1" /><inkscape:path-effect effect="spiro" id="path-effect854" is_visible="true" lpeversion="1" />
  <svg:style type="text/css" id="style2">
   
    .fil0 {fill:#EF7F1A;fill-rule:nonzero}
   
  </svg:style>
 <inkscape:path-effect effect="spiro" id="path-effect1214" is_visible="true" lpeversion="1" /><inkscape:path-effect effect="spiro" id="path-effect1195" is_visible="true" lpeversion="1" /><inkscape:path-effect effect="spiro" id="path-effect992" is_visible="true" lpeversion="1" /><inkscape:path-effect effect="spiro" id="path-effect287" is_visible="true" lpeversion="1" /><inkscape:path-effect effect="spiro" id="path-effect1032" is_visible="true" lpeversion="1" /><inkscape:path-effect effect="spiro" id="path-effect1218" is_visible="true" lpeversion="1" /><inkscape:path-effect effect="spiro" id="path-effect309" is_visible="true" lpeversion="1" /><inkscape:path-effect effect="spiro" id="path-effect1176" is_visible="true" lpeversion="1" /><inkscape:path-effect effect="spiro" id="path-effect1112" is_visible="true" lpeversion="1" /><inkscape:path-effect effect="spiro" id="path-effect1251" is_visible="true" lpeversion="1" /><inkscape:path-effect effect="spiro" id="path-effect513" is_visible="true" lpeversion="1" /></svg:defs>
 
<svg:g id="use1084"><svg:path style="color:#000000;clip-rule:nonzero;fill:#1a5fb4;fill-rule:nonzero;stroke-linecap:round;stroke-linejoin:round;-inkscape-stroke:none;shape-rendering:auto" d="m 114.88086,-139.30273 c -5.64685,-0.25289 -11.16006,0.75381 -15.816407,2.66601 L -2.3730469,-94.980469 c -9.5584921,3.925349 -18.4959031,13.166641 -21.6484371,23.646485 -3.152535,10.479843 -1.239169,20.860609 2.90625,28.859375 2.412258,4.654557 3.278389,10.666227 2.34375,15.482422 -1.211392,6.242297 -6.067371,13.265679 -12.082032,17.0058589 -6.170049,3.8368069 -15.11654,5.475306 -22.982421,3.9941406 -6.517504,-1.2272625 -13.209473,-4.5615015 -18.44336,-9.2675785 -5.267639,-4.736425 -9.575346,-11.270421 -12.037109,-18.347656 -2.18931,-6.293969 -3.034559,-13.294523 -2.408203,-20.013672 0.859507,-9.220254 -1.770051,-19.521762 -8.544922,-27.484375 -6.774869,-7.962613 -17.732629,-12.724609 -27.769529,-12.724609 h -94.69336 c -10.10239,0 -21.80801,4.664581 -29.01758,14.134766 -7.20957,9.470184 -8.62555,22.513736 -5.63281,32.404296 12.06516,39.8735536 33.54352,76.639626 62.44336,106.701172 30.75721,31.993587 71.5009,57.568504 118.818356,63.609374 31.310449,3.99731 62.8119291,-1.03647 91.183594,-12.98242 C 48.365393,98.120113 73.053508,79.618945 92.964844,57.287109 132.55813,12.880713 152.73112,-46.703758 148.67969,-105.9082 c -0.70648,-10.32395 -6.78174,-22.26323 -17.17383,-28.50782 -5.19605,-3.12229 -10.97815,-4.63383 -16.625,-4.88671 z M 87.171875,-66.890625 C 82.395524,-35.835004 68.844279,-5.8211918 48.179687,17.355469 33.748501,33.540966 16.03667,46.631874 -3.2207031,54.740234 -22.409304,62.819638 -43.643202,66.041706 -63.521484,63.503906 -93.619768,59.66135 -123.35507,42.09448 -146.68555,17.826172 -161.24852,2.6778002 -173.40867,-14.890517 -182.7168,-33.830078 h 36.98438 c 0.9717,6.751296 2.48554,13.436757 4.74609,19.935547 5.70508,16.4013232 15.37262,31.367616 28.58985,43.251953 13.250974,11.914686 29.547414,20.240488 47.45898,23.613281 22.365582,4.211496 45.815818,0.404188 65.76953125,-12.003906 C 20.941133,28.462075 35.479752,8.3945697 40.128906,-15.5625 42.211391,-26.293533 42.061405,-37.102439 40,-47.517578 Z" id="path17968" /></svg:g></svg:svg>
